X: 24
T:Female Rake,The. JaW.024
M:6/8
Q:120
S:James Winder Ms, Lancashire, 1835-41
R:Jig
O:England
A:Wyresdale,Lancashire
H:1/8
Z:vmp.Chris Partington, Aug 2004
K:D
ded dAF|GEA FDF|FGA Bcd|efd c2A|!
ded dAF|GEA FDE|FGA Bcd|ecA d3:|!
|:efd ecA |fdB ecA|e2f gfe|dcB A2F|!
GFG g2G|FEF f2F|EFG AFD|ecA d3:|]



